X:16984
T:The Maid Behind the Bar
T:The Green Mountain
M:C|
A:Ireland
R:reel 
B:O'Neills
Z:In O'Neill's as the Green Mountain, with a bit different setting.
K:D
G|"D"FAAB AFED|FAAB A2 de|"Bm"fBBA Bcde|f2 gf "A"edBA|
"D"FAAB AFED|FAAB A2 de|"Bm"fBBA "G"BcdB|"A"AFEF "D"D3:|
e|"D"fgag fdde|fdad fd d2|"Em"efga beef|gebe ge ~e2|
"D"faaf bfaf|defd e2 de|"Bm"fBBA "G"BcdB|"A"AFEF "D"D3:|


